src/flag.svg

<svg viewBox="0 0 16 16" fill="none" xmlns="http://www.w3.org/2000/svg"><path d="M12.55 2.65C11.9256 2.94821 11.242 3.10201 10.55 3.1C10.0749 3.0977 9.6029 3.02352 9.15 2.88L7.44 2.32C5.82781 1.80034 4.07775 1.91844 2.55 2.65L2 3V14H3V10.36L3.45 10.13C4.50039 9.62869 5.70321 9.54993 6.81 9.91L8.56 10.47C10.173 10.9907 11.9246 10.8689 13.45 10.13L14 9.87V2L12.55 2.65ZM13 9.28C12.2481 9.64185 11.4244 9.82983 10.59 9.83C10.0093 9.83067 9.43221 9.73954 8.88 9.56L7.12 9C5.76177 8.55992 4.2862 8.6602 3 9.28V3.51C4.2862 2.8902 5.76177 2.78992 7.12 3.23L8.88 3.79C9.43221 3.96954 10.0093 4.06067 10.59 4.06C11.4244 4.05983 12.2481 3.87185 13 3.51V9.28Z" fill="#111111"/></svg>

<svg viewBox="0 0 16 16" fill="none" xmlns="http://www.w3.org/2000/svg"><path d="M12.55 2.65a4.61 4.61 0 0 1-3.4.23l-1.71-.56a6.62 6.62 0 0 0-4.89.33L2 3v11h1v-3.64l.45-.23a4.54 4.54 0 0 1 3.36-.22l1.75.56a6.58 6.58 0 0 0 4.89-.34l.55-.26V2l-1.45.65ZM13 9.28a5.56 5.56 0 0 1-4.12.28L7.12 9A5.55 5.55 0 0 0 3 9.28V3.51a5.55 5.55 0 0 1 4.12-.28l1.76.56A5.56 5.56 0 0 0 13 3.51v5.77Z" fill="#111111"/></svg>
